X:1
T:Even the Waifs of the Street
T:Even the Waifs of the Street
T:Fred Welden
T:James A. Fraser, 1893
T:Public Domain Courtesy of the Cyber Hymnal™
C:Fred Welden
Z:Public Domain
Z:Courtesy of the Cyber Hymnal™
%%score 1 ( 2 3 )
L:1/8
Q:1/4=83
M:6/8
K:G
V:1 treble 
V:2 bass 
V:3 bass 
V:1
 dcB BAG | AGE D3 | DEF GFG | A^GB A3 | dcB BAG | ccc E3 | DEF GFG | ADA G2 z || %8
w: 1.~Je- sus loves child- ren, the|Bi- ble says so;|He will be with them wher-|ev- er they go,|Shield them from harm thro’ the|dark- ness of night,|Guide them and help them all|day to do right.|
w: 2.~“Suf- fer the child- ren to|come un- to Me,”|Those words He spoke be- side|blue Gal- i- lee;|Not the rich on- ly, His|sweet mes- sage greets,|Je- sus loves ev- en the|waifs of the streets.|
w: 3.~Rag- ged and tat- tered and|hun- gry, the waif|May to the Sav- ior re-|pair and be safe;|Christ once was friend- less and|hun- gry and poor,|That’s why He pi- ties the|waifs at the door.|
"^Refrain" [DB][Dc][Dd] [=Fd]2 [Fd] | [Ec][EG][EA] [^DB]3 | [EA][CE][EA] [DG][B,D][DG] | %11
w: |||
w: Shout the glad news to|each one you meet,|Je- sus loves ev- en the|
w: |||
 [CF][B,G][CA] [B,G]6 |] %12
w: |
w: waifs of the street.|
w: |
V:2
 [G,,,G,,][D,G,B,][D,G,B,] [B,,,B,,][=F,G,D][F,G,D] | %1
 [C,,C,][E,G,C][E,G,C] [G,,,G,,][D,G,B,][D,G,B,] | [G,,,G,,][D,G,B,][D,G,B,] E,,[E,G,B,][E,G,B,] | %3
 [A,,,A,,][E,A,^C][E,A,C] [D,,D,][F,A,D][D,F,=C] | %4
 [G,,,G,,][D,G,B,][D,G,B,] [B,,,B,,][=F,G,D][F,G,D] | [A,,,C,][E,G,C][E,G,C] [C,E,G,C]3 | %6
 [D,,D,][D,G,B,][D,G,B,] [D,,D,][D,G,B,][D,G,B,] | [D,,D,][F,A,C][D,F,C] [G,B,]2 z || %8
 G,[G,A,][G,B,] [B,,G,]2 [B,,G,] | [C,G,][C,G,][C,E,] [B,,F,]3 | %10
 [C,E,][C,G,][C,C] [D,B,][D,G,][D,B,] | [D,A,][D,G,][D,F,] [G,,G,]6 |] %12
V:3
 x6 | x6 | x6 | x6 | x6 | x6 | x6 | x6 || G, x5 | x6 | x6 | x9 |] %12

